icons/svg/topo/topo_ship.svg

<?xml version="1.0" encoding="UTF-8" standalone="no"?>
<!-- Created with Inkscape (http://www.inkscape.org/) -->

<svg
   xmlns:dc="http://purl.org/dc/elements/1.1/"
   xmlns:cc="http://creativecommons.org/ns#"
   xmlns:rdf="http://www.w3.org/1999/02/22-rdf-syntax-ns#"
   xmlns:svg="http://www.w3.org/2000/svg"
   xmlns="http://www.w3.org/2000/svg"
   xmlns:sodipodi="http://sodipodi.sourceforge.net/DTD/sodipodi-0.dtd"
   xmlns:inkscape="http://www.inkscape.org/namespaces/inkscape"
   version="1.0"
   width="580"
   height="580"
   id="svg2"
   sodipodi:version="0.32"
   inkscape:version="0.48.4 r9939"
   sodipodi:docname="ship.svg"
   inkscape:output_extension="org.inkscape.output.svg.inkscape">
  <metadata
     id="metadata2975">
    <rdf:RDF>
      <cc:Work
         rdf:about="">
        <dc:format>image/svg+xml</dc:format>
        <dc:type
           rdf:resource="http://purl.org/dc/dcmitype/StillImage" />
        <cc:license
           rdf:resource="http://web.resource.org/cc/PublicDomain" />
        <dc:language>en</dc:language>
        <dc:title></dc:title>
      </cc:Work>
    </rdf:RDF>
  </metadata>
  <sodipodi:namedview
     inkscape:window-height="1004"
     inkscape:window-width="1920"
     inkscape:pageshadow="2"
     inkscape:pageopacity="0.0"
     guidetolerance="10.0"
     gridtolerance="10.0"
     objecttolerance="10.0"
     borderopacity="1.0"
     bordercolor="#666666"
     pagecolor="#ffffff"
     id="base"
     inkscape:zoom="0.32586207"
     inkscape:cx="604.8067"
     inkscape:cy="533.38738"
     inkscape:window-x="1680"
     inkscape:window-y="0"
     inkscape:current-layer="svg2"
     showgrid="false"
     inkscape:window-maximized="1" />
  <defs
     id="defs4">
    <inkscape:perspective
       sodipodi:type="inkscape:persp3d"
       inkscape:vp_x="0 : 290 : 1"
       inkscape:vp_y="0 : 1000 : 0"
       inkscape:vp_z="580 : 290 : 1"
       inkscape:persp3d-origin="290 : 193.33333 : 1"
       id="perspective2441" />
    <inkscape:perspective
       id="perspective3452"
       inkscape:persp3d-origin="30 : 20 : 1"
       inkscape:vp_z="60 : 30 : 1"
       inkscape:vp_y="0 : 1000 : 0"
       inkscape:vp_x="0 : 30 : 1"
       sodipodi:type="inkscape:persp3d" />
  </defs>
  <g
     id="g1327"
     transform="translate(2.4752197,0)">
    <path
       d="M 66.275,1.768 C 24.94,1.768 1.704,23.139 1.704,66.804 l 0,450.123 c 0,40.844 20.895,62.229 62.192,62.229 l 452.024,0 c 41.307,0 62.229,-20.315 62.229,-62.229 l 0,-450.123 c 0,-42.601 -20.922,-65.036 -63.521,-65.036 -0.004,0 -448.495,-0.143 -448.353,0 z"
       style="fill:#111111;stroke:#eeeeee;stroke-width:3.40799999"
       id="path1329"
       inkscape:connector-curvature="0" />
  </g>
  <path
     style="font-size:medium;font-style:normal;font-variant:normal;font-weight:normal;font-stretch:normal;text-indent:0;text-align:start;text-decoration:none;line-height:normal;letter-spacing:normal;word-spacing:normal;text-transform:none;direction:ltr;block-progression:tb;writing-mode:lr-tb;text-anchor:start;baseline-shift:baseline;color:#000000;fill:#ffffff;fill-opacity:1;fill-rule:nonzero;stroke:none;stroke-width:57.5;marker:none;visibility:visible;display:inline;overflow:visible;enable-background:accumulate;font-family:Sans;-inkscape-font-specification:Sans"
     d="M 543.6875 301.5 C 543.6875 301.5 468.45585 301.92728 429.15625 302.03125 L 403.65625 333.21875 L 249.59375 333.21875 L 232.21875 301.75 C 180.70425 301.15076 36.3125 302.125 36.3125 302.125 C 39.086883 336.25036 62.468545 381.63149 82.5625 409.40625 C 102.65645 437.18102 123.00472 435.87425 130.53125 435.875 L 475.6875 435.875 C 483.21403 435.87425 492.86544 431.13456 498.1875 425.8125 C 535.34911 364.74769 533.82415 343.85125 543.6875 301.5 z M 504.125 355.03125 L 503.375 362.90625 L 124.71875 362.90625 L 124.71875 355.15625 L 504.125 355.03125 z "
     id="rect2992" />
  <path
     style="color:#000000;fill:#ffffff;fill-opacity:1;fill-rule:nonzero;stroke:none;stroke-width:0;marker:none;visibility:visible;display:inline;overflow:visible;enable-background:accumulate"
     d="m 244.04639,285.55488 212.58339,-0.15889 -32.65841,26.08362 -192.58371,0 z"
     id="rect3791"
     inkscape:connector-curvature="0"
     sodipodi:nodetypes="ccccc" />
  <path
     style="color:#000000;fill:#ffffff;fill-opacity:1;fill-rule:nonzero;stroke:none;stroke-width:0;marker:none;visibility:visible;display:inline;overflow:visible;enable-background:accumulate"
     d="m 252.96279,308.72303 10.51061,0 0,25.92473 -10.51061,0 z"
     id="rect3791-5-9"
     inkscape:connector-curvature="0" />
  <path
     style="color:#000000;fill:#ffffff;fill-opacity:1;fill-rule:nonzero;stroke:none;stroke-width:0;marker:none;visibility:visible;display:inline;overflow:visible;enable-background:accumulate"
     d="m 285.50225,309.09556 10.51061,0 0,25.92473 -10.51061,0 z"
     id="rect3791-5-2"
     inkscape:connector-curvature="0" />
  <path
     style="color:#000000;fill:#ffffff;fill-opacity:1;fill-rule:nonzero;stroke:none;stroke-width:0;marker:none;visibility:visible;display:inline;overflow:visible;enable-background:accumulate"
     d="m 318.04175,308.18054 10.51061,0 0,25.92473 -10.51061,0 z"
     id="rect3791-5-7"
     inkscape:connector-curvature="0" />
  <path
     style="color:#000000;fill:#ffffff;fill-opacity:1;fill-rule:nonzero;stroke:none;stroke-width:0;marker:none;visibility:visible;display:inline;overflow:visible;enable-background:accumulate"
     d="m 383.12072,308.72303 10.51061,0 0,25.92473 -10.51061,0 z"
     id="rect3791-5-4"
     inkscape:connector-curvature="0" />
  <path
     style="color:#000000;fill:#ffffff;fill-opacity:1;fill-rule:nonzero;stroke:none;stroke-width:0;marker:none;visibility:visible;display:inline;overflow:visible;enable-background:accumulate"
     d="m 256.31751,58.678434 11.70109,0 9.76481,233.239526 -22.55088,0 z"
     id="rect3791-5-9-1-6"
     inkscape:connector-curvature="0"
     sodipodi:nodetypes="ccccc" />
  <path
     style="color:#000000;fill:#ffffff;fill-opacity:1;fill-rule:nonzero;stroke:none;stroke-width:0;marker:none;visibility:visible;display:inline;overflow:visible;enable-background:accumulate"
     d="m 350.58124,308.72303 10.51061,0 0,25.92473 -10.51061,0 z"
     id="rect3791-5-7-5"
     inkscape:connector-curvature="0" />
  <path
     style="color:#000000;fill:#ffffff;fill-opacity:1;fill-rule:nonzero;stroke:none;stroke-width:0;marker:none;visibility:visible;display:inline;overflow:visible;enable-background:accumulate"
     d="m 432.92074,253.7365 15.24452,0 10.93254,7.86376 20.77535,0.95899 -0.1918,49.13241 -46.76061,0 z"
     id="rect3791-5-7-5-5"
     inkscape:connector-curvature="0"
     sodipodi:nodetypes="ccccccc" />
  <path
     style="color:#000000;fill:#ffffff;fill-opacity:1;fill-rule:nonzero;stroke:none;stroke-width:0;marker:none;visibility:visible;display:inline;overflow:visible;enable-background:accumulate"
     d="m 369.74243,103.70505 11.15861,0 6.50987,186.58544 -23.09337,-2.16996 z"
     id="rect3791-5-9-1-1"
     inkscape:connector-curvature="0"
     sodipodi:nodetypes="ccccc" />
  <path
     style="color:#000000;fill:none;stroke:#ffffff;stroke-width:15;stroke-linecap:round;stroke-linejoin:round;stroke-miterlimit:4;stroke-opacity:1;stroke-dasharray:none;stroke-dashoffset:0;marker:none;visibility:visible;display:inline;overflow:visible;enable-background:accumulate"
     d="m 233.67167,113.4502 54.06714,21.68895"
     id="path4074"
     inkscape:connector-curvature="0"
     sodipodi:nodetypes="cc" />
  <path
     style="color:#000000;fill:none;stroke:#ffffff;stroke-width:13.76732063;stroke-linecap:round;stroke-linejoin:round;stroke-miterlimit:4;stroke-opacity:1;stroke-dasharray:none;stroke-dashoffset:0;marker:none;visibility:visible;display:inline;overflow:visible;enable-background:accumulate"
     d="m 222.71407,191.62317 79.93412,48.21776"
     id="path4074-9"
     inkscape:connector-curvature="0"
     sodipodi:nodetypes="cc" />
  <path
     style="color:#000000;fill:none;stroke:#ffffff;stroke-width:15;stroke-linecap:round;stroke-linejoin:round;stroke-miterlimit:4;stroke-opacity:1;stroke-dasharray:none;stroke-dashoffset:0;marker:none;visibility:visible;display:inline;overflow:visible;enable-background:accumulate"
     d="m 349.4387,151.48344 49.21539,23.22702"
     id="path4074-95"
     inkscape:connector-curvature="0"
     sodipodi:nodetypes="cc" />
  <path
     style="color:#000000;fill:none;stroke:#ffffff;stroke-width:15;stroke-linecap:round;stroke-linejoin:round;stroke-miterlimit:4;stroke-opacity:1;stroke-dasharray:none;stroke-dashoffset:0;marker:none;visibility:visible;display:inline;overflow:visible;enable-background:accumulate"
     d="m 341.3668,205.57227 65.90167,36.0245"
     id="path4074-9-3"
     inkscape:connector-curvature="0"
     sodipodi:nodetypes="cc" />
</svg>

<svg width="580" height="580" viewBox="0 0 580 580" fill="none" xmlns="http://www.w3.org/2000/svg">
<g clip-path="url(#clip0)">
<path d="M68.7502 1.76815C27.4152 1.76815 4.1792 23.1391 4.1792 66.8041V516.927C4.1792 557.771 25.0742 579.156 66.3712 579.156H518.395C559.702 579.156 580.624 558.841 580.624 516.927V66.8041C580.624 24.2031 559.702 1.76815 517.103 1.76815C517.099 1.76815 68.6082 1.62515 68.7502 1.76815V1.76815Z" fill="#111111" stroke="#EEEEEE" stroke-width="3.408"/>
<path d="M543.688 301.5C543.688 301.5 468.456 301.927 429.156 302.031L403.656 333.219H249.594L232.219 301.75C180.704 301.151 36.3125 302.125 36.3125 302.125C39.0869 336.25 62.4685 381.631 82.5625 409.406C102.656 437.181 123.005 435.874 130.531 435.875H475.688C483.214 435.874 492.865 431.135 498.188 425.812C535.349 364.748 533.824 343.851 543.688 301.5ZM504.125 355.031L503.375 362.906H124.719V355.156L504.125 355.031Z" fill="white"/>
<path d="M244.046 285.555L456.63 285.396L423.971 311.48H231.388L244.046 285.555Z" fill="white"/>
<path d="M252.963 308.723H263.473V334.648H252.963V308.723Z" fill="white"/>
<path d="M285.502 309.096H296.013V335.02H285.502V309.096Z" fill="white"/>
<path d="M318.042 308.181H328.553V334.105H318.042V308.181Z" fill="white"/>
<path d="M383.121 308.723H393.631V334.648H383.121V308.723Z" fill="white"/>
<path d="M256.317 58.6782H268.018L277.783 291.918H255.232L256.317 58.6782Z" fill="white"/>
<path d="M350.581 308.723H361.092V334.648H350.581V308.723Z" fill="white"/>
<path d="M432.921 253.736H448.165L459.098 261.6L479.873 262.559L479.681 311.691H432.921V253.736Z" fill="white"/>
<path d="M369.742 103.705H380.901L387.411 290.291L364.317 288.121L369.742 103.705Z" fill="white"/>
<path d="M233.672 113.45L287.739 135.139" stroke="white" stroke-width="15" stroke-linecap="round" stroke-linejoin="round"/>
<path d="M222.714 191.623L302.648 239.841" stroke="white" stroke-width="13.7673" stroke-linecap="round" stroke-linejoin="round"/>
<path d="M349.438 151.483L398.654 174.71" stroke="white" stroke-width="15" stroke-linecap="round" stroke-linejoin="round"/>
<path d="M341.367 205.572L407.268 241.597" stroke="white" stroke-width="15" stroke-linecap="round" stroke-linejoin="round"/>
</g>
<defs>
<clipPath id="clip0">
<path d="M0 0H580V580H0V0Z" fill="white"/>
</clipPath>
</defs>
</svg>
